icon/ir/media-video-folder.svg

<svg stroke-width="1.5" viewBox="0 0 24 24" fill="none" xmlns="http://www.w3.org/2000/svg" height="1em" width="1em">
  <path d="M22 12.6V20.4C22 20.7314 21.7314 21 21.4 21H13.6C13.2686 21 13 20.7314 13 20.4V12.6C13 12.2686 13.2686 12 13.6 12H21.4C21.7314 12 22 12.2686 22 12.6Z" stroke="currentColor" stroke-linecap="round" stroke-linejoin="round"/>
  <path d="M16.918 14.5737C16.5184 14.324 16 14.6113 16 15.0825V17.9175C16 18.3887 16.5184 18.676 16.918 18.4263L19.1859 17.0088C19.5619 16.7738 19.5619 16.2262 19.1859 15.9912L16.918 14.5737Z" stroke="currentColor" stroke-linecap="round" stroke-linejoin="round"/>
  <path d="M2 10V3.6C2 3.26863 2.26863 3 2.6 3H8.77805C8.92127 3 9.05977 3.05124 9.16852 3.14445L12.3315 5.85555C12.4402 5.94876 12.5787 6 12.722 6H21.4C21.7314 6 22 6.26863 22 6.6V9M2 10V18.4C2 18.7314 2.26863 19 2.6 19H10M2 10H10" stroke="currentColor" stroke-linecap="round" stroke-linejoin="round"/>
</svg>

<svg width="24" height="24" stroke-width="1.5" fill="none" xmlns="http://www.w3.org/2000/svg"><path d="M22 12.6v7.8a.6.6 0 0 1-.6.6h-7.8a.6.6 0 0 1-.6-.6v-7.8a.6.6 0 0 1 .6-.6h7.8a.6.6 0 0 1 .6.6Z" stroke="currentColor" stroke-linecap="round" stroke-linejoin="round"/><path d="M16.918 14.574a.6.6 0 0 0-.918.508v2.835a.6.6 0 0 0 .918.51l2.268-1.418a.6.6 0 0 0 0-1.018l-2.268-1.417ZM2 10V3.6a.6.6 0 0 1 .6-.6h6.178a.6.6 0 0 1 .39.144l3.164 2.712a.6.6 0 0 0 .39.144H21.4a.6.6 0 0 1 .6.6V9M2 10v8.4a.6.6 0 0 0 .6.6H10m-8-9h8" stroke="currentColor" stroke-linecap="round" stroke-linejoin="round"/></svg>
